!!!OTL: 63. Luetzows* wilde Jagd.
!!!COM: Karl Maria v. Weber
!!!ODT: 1514
!!!ARE: Europa, Mitteleuropa, Deutschland
!!!SCT: B0063
!!!TXL: @@DE
!!!YEM: Copyright 1995, estate of Helmut Schaffrath.
**kern	**text
*ICvox	*
*Ivox	*
*M6/8	*
*clefG2	*
*k[b-e-]	*
*B-:	*
!LO:TX:a:t=Raſch und feurig, im Sprechton.	!
{8f	Was
=1	=1
8f	glänʒt
8f	dort
8f	vom
8f	Wal-
8d	-de
8f	im
=2	=2
8fL	Son-
8b-J	.
8f	-nen-
4f}	-ſchein?
{8b-	Hör's
=3	=3
8b-	nä-
8b-	-her
8b-	und
8b-L	nä-
8fJ	.
8b-	-her
=4	=4
2.dd	brau-
=5	=5
4.b-	-ſen.
4r}	.
{8e-	Es
=6	=6
8e-	ʒieht
8e-	ſich
8e-	he-
8e-	-run-
8e-	-ter
8g	in
=7	=7
8.a-	dü-
16a-	-ſte-
8a-	-ren
4g}	Reihn
{8b-	und
=8	=8
8b-	gel-
8b-	-len-
8b-	-de
8b-L	Hör-
8gJ	.
8b-	-ner
=9	=9
8b-	ſchal-
8ee-	-len
8b-	da-
4b-}	-rein
{16b-	und
16b-	er-
=10	=10
8b-	-fül-
8b-	-len
8b-	die
8b-	See-
8b-	-le
8b-	mit
=11	=11
4.a	Grau-
4cc	-ſen.
8r	.
=12	=12
4r	.
8r	.
4r}	.
{8f	Und
=13	=13
4.f	wenn
4f	ihr
8f	die
=14	=14
8g-^	ſchwar-
8f	-ʒen
8en	Ge-
4f	-ſel-
8a	-len
=15	=15
4.cc	fragt:
4r	.
8r}	.
=16||	=16||
{2.b-	Das
=17	=17
2.b-	iſt,
=18	=18
!LO:TX:a:t=P:only higher voice encoded:problem	!
4.dd^	das
4.dd^	iſt
=19	=19
4.ff^	Lüt-
4.dd	-ʒows
=20	=20
8.cc/	wil-
16cc/	-de,
8cc/	ver-
(16ddqq	.
8cc/)	-we-
8b-/	-ge-
8cc/	-ne
=21	=21
[4.dd	Jagd.
4dd;]	.
8r}	.
=22	=22
{2.b-	Das
=23	=23
2.b-	iſt,
=24	=24
4.dd^	das
4.dd^	iſt
=25	=25
4.ff^	Lüt-
4.dd	-ʒows
=26	=26
8.cc/	wil-
16cc/	-de,
8cc/	ver-
(16ddqq	.
8cc/)	-we-
8b-/	-ge-
8cc/	-ne
=27	=27
[4.dd	Jagd.
4dd;]	.
8r}	.
==	==
!!!AGN: Kriegs -, Sieges -, Soldaten - Lied
!!!GTL: Kriegs- und Siegeslieder
!!!ONB: ESAC (Essen Associative Code) Database: BOEHME
!!!AMT: compound duple
!!!AIN: vox
!!!EED: Helmut Schaffrath
!!!EEV: 1.0
!!@@COMMENT:"Gedicht von Theodor Körner. Ʒuerſt in: Ʒwölf freideutſche Gedichte von Th. Körner, 1813 Das 12. Lied. )"
!!@@END:
!!Text: Theodor Körner
!!!URL-scan: https://archive.org/details/BoehmeVtLieder1895/page/n77/mode/2up
!!!ENC: Anna Maria Matuszewska
!!!EEV: 2024/14/06
*-	*-
